docs/public/img/providers/clickup.svg

<svg width="185" height="185" viewBox="0 0 185 185" fill="none" xmlns="http://www.w3.org/2000/svg">
<g filter="url(#filter0_d)">
<rect x="30" y="20" width="125" height="125" rx="62.5" fill="white"/>
<rect x="30" y="20" width="125" height="125" rx="62.5" fill="white"/>
<path fill-rule="evenodd" clip-rule="evenodd" d="M55.8789 105.714L69.3974 95.3593C76.5762 104.732 84.1998 109.051 92.6948 109.051C101.143 109.051 108.557 104.781 115.414 95.4832L129.119 105.59C119.232 118.996 106.932 126.079 92.6948 126.079C78.5049 126.079 66.0907 119.046 55.8789 105.714Z" fill="url(#paint0_linear)"/>
<path fill-rule="evenodd" clip-rule="evenodd" d="M92.6491 60.7078L68.5883 81.4406L57.4727 68.5407L92.6969 38.1885L127.647 68.5644L116.477 81.417L92.6491 60.7078Z" fill="url(#paint1_linear)"/>
</g>
<defs>
<filter id="filter0_d" x="0" y="0" width="185" height="185" filterUnits="userSpaceOnUse" color-interpolation-filters="sRGB">
<feFlood flood-opacity="0" result="BackgroundImageFix"/>
<feColorMatrix in="SourceAlpha" type="matrix" values="0 0 0 0 0 0 0 0 0 0 0 0 0 0 0 0 0 0 127 0"/>
<feOffset dy="10"/>
<feGaussianBlur stdDeviation="15"/>
<feColorMatrix type="matrix" values="0 0 0 0 0.0627451 0 0 0 0 0.117647 0 0 0 0 0.211765 0 0 0 0.1 0"/>
<feBlend mode="normal" in2="BackgroundImageFix" result="effect1_dropShadow"/>
<feBlend mode="normal" in="SourceGraphic" in2="effect1_dropShadow" result="shape"/>
</filter>
<linearGradient id="paint0_linear" x1="55.8789" y1="116.251" x2="129.119" y2="116.251" gradientUnits="userSpaceOnUse">
<stop stop-color="#8930FD"/>
<stop offset="1" stop-color="#49CCF9"/>
</linearGradient>
<linearGradient id="paint1_linear" x1="57.4727" y1="67.6025" x2="127.647" y2="67.6025" gradientUnits="userSpaceOnUse">
<stop stop-color="#FF02F0"/>
<stop offset="1" stop-color="#FFC800"/>
</linearGradient>
</defs>
</svg>

<svg xmlns:xlink="http://www.w3.org/1999/xlink" fill="none" viewBox="0 0 185 185"><g filter="url(#a)"><rect width="125" height="125" x="30" y="20" fill="#fff" rx="62.5"/><rect width="125" height="125" x="30" y="20" fill="#fff" rx="62.5"/><path fill="url(#b)" fill-rule="evenodd" d="m55.9 105.7 13.5-10.3c7.2 9.3 14.8 13.7 23.3 13.7 8.4 0 15.9-4.3 22.7-13.6l13.7 10c-9.9 13.5-22.2 20.6-36.4 20.6s-26.6-7-36.8-20.4Z" clip-rule="evenodd"/><path fill="url(#c)" fill-rule="evenodd" d="m92.6 60.7-24 20.7-11.1-12.9 35.2-30.3 35 30.4-11.2 12.8-23.9-20.7Z" clip-rule="evenodd"/></g><defs><linearGradient id="b" x1="55.9" x2="129.1" y1="116.3" y2="116.3" gradientUnits="userSpaceOnUse"><stop stop-color="#8930FD"/><stop offset="1" stop-color="#49CCF9"/></linearGradient><linearGradient id="c" x1="57.5" x2="127.6" y1="67.6" y2="67.6" gradientUnits="userSpaceOnUse"><stop stop-color="#FF02F0"/><stop offset="1" stop-color="#FFC800"/></linearGradient><filter id="a" width="185" height="185" x="0" y="0" color-interpolation-filters="sRGB" filterUnits="userSpaceOnUse"><feFlood flood-opacity="0" result="BackgroundImageFix"/><feColorMatrix in="SourceAlpha" values="0 0 0 0 0 0 0 0 0 0 0 0 0 0 0 0 0 0 127 0"/><feOffset dy="10"/><feGaussianBlur stdDeviation="15"/><feColorMatrix values="0 0 0 0 0.0627451 0 0 0 0 0.117647 0 0 0 0 0.211765 0 0 0 0.1 0"/><feBlend in2="BackgroundImageFix" result="effect1_dropShadow"/><feBlend in="SourceGraphic" in2="effect1_dropShadow" result="shape"/></filter></defs></svg>
